X:72
T:Over The Moor To Maggie
S:The Session: https://thesession.org/tunes/115#setting115
C:Traditional
R:reel
K:G
M:4/4
L:1/8
Q:1/4=120
DE |: G2GA B2Bd| efge dBAG| EAAG ABAG| EAAG AcBA|
| GFGA BABd| efge dBAG| DGGF GBAG|1 EDEF G2 DE:|2 EDEF G2 ga |]
|: b2bg a2af| g2ge fedB| eaag abag| eaag a2 ga| 
| b2bg a2af| g2ge fedB| dggf gbag|1 edef g2 ga:|2 edef g2 cd |]
|: e2ec d2dB| c2cA BAGD| EAAG ABAG| EAAG ABcd|
| e2ec d2dB| c2cA BAGE| DGGF GBAG|1 EDEF G2 cd:|2 EDEF G4|]

